assets/Woman teacher/Medium-Dark/Flat/woman_teacher_flat_medium-dark.svg

<svg width="32" height="32" viewBox="0 0 32 32" fill="none" xmlns="http://www.w3.org/2000/svg">
<path d="M3 7L10.5 19L27.5 24L29.8062 24.8062C29.9175 24.6925 29.985 24.535 29.98 24.36V4.62C29.98 4.28 29.71 4 29.36 4H2.62C2.45 4 2.295 4.07 2.1825 4.1825L3 7Z" fill="#FFCE7C"/>
<path d="M2.62 24.9901H29.37C29.54 24.9901 29.695 24.9201 29.8062 24.8064L29 24.0001L3 5.00012L2.1825 4.18262C2.07 4.29512 2 4.45012 2 4.62012V24.3701C2 24.7101 2.28 24.9901 2.62 24.9901Z" fill="#E19747"/>
<path d="M3 23.99V5H28.99V23.99H3Z" fill="#44911B"/>
<path d="M23.59 12.48C23.81 12.02 23.93 11.51 23.93 10.97C23.93 10.26 23.72 9.6 23.35 9.05C22.98 8.5 22.79 7.85 22.79 7.18V7.17C22.79 5.25 21.23 3.69 19.31 3.69C19.12 3.69 18.94 3.6 18.83 3.45C18.21 2.57 17.18 2 16.02 2C14.85 2 13.82 2.57 13.19 3.45C13.08 3.61 12.9 3.7 12.71 3.7C10.79 3.7 9.22997 5.26 9.22997 7.18V7.19C9.22997 7.86 9.03997 8.5 8.66997 9.06C8.30997 9.6 8.08997 10.26 8.08997 10.97C8.08997 11.51 8.20997 12.02 8.42997 12.48C8.49997 12.63 8.49997 12.81 8.42997 12.96C8.20997 13.41 8.08997 13.91 8.08997 14.45C8.08997 16.32 9.60997 17.84 11.48 17.84H20.53C22.4 17.84 23.92 16.32 23.92 14.45C23.92 13.92 23.8 13.41 23.58 12.96C23.52 12.81 23.52 12.63 23.59 12.48Z" fill="#2D242D"/>
<path d="M9 18.0145C10.9026 16.4434 13.342 15.5 16 15.5C18.6599 15.5 21.099 16.4448 23 18.0179L24.5 24L23 30H9L7.5 24L9 18.0145Z" fill="#8C5543"/>
<path d="M11.29 18.94L12.65 16H14V30L11.2 22.13C11.07 21.78 11.17 21.39 11.43 21.13L12.79 19.8C12.95 19.64 12.84 19.35 12.6 19.35H11.55C11.34 19.35 11.2 19.13 11.29 18.94Z" fill="#6D4534"/>
<path d="M20.76 18.94L19.4 16H18V30L20.85 22.13C20.98 21.78 20.88 21.39 20.62 21.13L19.26 19.8C19.1 19.64 19.21 19.35 19.45 19.35H20.5C20.71 19.35 20.85 19.13 20.76 18.94Z" fill="#6D4534"/>
<path d="M9.00005 18C6.57005 20.03 4.99005 23.09 5.00005 26.5V30H9.00005V18Z" fill="#6D4534"/>
<path d="M23 18V30H27V29.0098C27 29.0065 27 29.0033 27 29L26.99 26.49C26.99 23.08 25.45 20.02 23 18Z" fill="#6D4534"/>
<path d="M18.0499 16.8201H13.9399V30.0001H18.0499V16.8201Z" fill="#E6E6E6"/>
<path d="M15.9999 18.67C14.8599 18.67 13.9399 17.75 13.9399 16.61V14.05C13.9399 12.91 14.8599 11.99 15.9999 11.99C17.1399 11.99 18.0599 12.91 18.0599 14.05V16.61C18.0499 17.75 17.1299 18.67 15.9999 18.67Z" fill="#8B5C56"/>
<path d="M13.0012 10.6901C13.0012 11.5903 12.2714 12.3201 11.3712 12.3201C10.471 12.3201 9.74121 11.5903 9.74121 10.6901C9.74121 9.78983 10.471 9.06006 11.3712 9.06006C12.2714 9.06006 13.0012 9.78983 13.0012 10.6901Z" fill="#8B5C56"/>
<path d="M22.1987 10.6901C22.1987 11.5903 21.4689 12.3201 20.5687 12.3201C19.6685 12.3201 18.9387 11.5903 18.9387 10.6901C18.9387 9.78983 19.6685 9.06006 20.5687 9.06006C21.4689 9.06006 22.1987 9.78983 22.1987 10.6901Z" fill="#8B5C56"/>
<path d="M18.07 16.8301H13.95V30.0201H18.07V16.8301Z" fill="#E6E6E6"/>
<path d="M16 18.68C14.8932 18.68 14 17.76 14 16.62V14.06C14 12.92 14.8932 12 16 12C17.1068 12 18 12.92 18 14.06V16.62C18 17.76 17.1068 18.68 16 18.68Z" fill="#8B5C56"/>
<path d="M20.14 7.65994H16.79C15.46 7.65994 14.22 6.99994 13.47 5.90994C13.34 5.72994 13.07 5.75994 12.99 5.96994L12.91 6.16994C12.676 6.74497 12.012 7.23424 11.54 7.48994C11.3 7.61994 10.72 7.99994 10.7 8.99994L10.84 12.3399C10.96 15.2999 13.24 17.2799 16.01 17.2799C18.78 17.2799 21.06 15.2999 21.18 12.3399L21.31 9.15994C21.31 7.75994 20.33 7.65994 20.14 7.65994Z" fill="#966661"/>
<path d="M13.26 9.6001C13.85 9.6001 14.34 10.0101 14.64 10.4701C14.3968 10.5434 14.1602 10.6111 13.9262 10.6782C13.458 10.8123 13.0001 10.9434 12.52 11.1101L12.02 10.6601C11.82 10.4701 11.83 10.1301 12.06 9.9701C12.39 9.7301 12.84 9.6001 13.26 9.6001Z" fill="black"/>
<path d="M18.77 9.6001C18.18 9.6001 17.69 10.0101 17.39 10.4701C17.6507 10.5498 17.9049 10.6229 18.1578 10.6956C18.6031 10.8237 19.0444 10.9506 19.51 11.1101L20.01 10.6601C20.21 10.4701 20.2 10.1301 19.97 9.9701C19.64 9.7301 19.19 9.6001 18.77 9.6001Z" fill="black"/>
<path d="M12.01 10.82C12.17 10.18 12.75 9.70996 13.44 9.70996C14.16 9.70996 14.75 10.22 14.89 10.9C14.92 11.04 14.8 11.18 14.65 11.18H12.3C12.11 11.18 11.97 11 12.01 10.82Z" fill="white"/>
<path d="M20.01 10.82C19.85 10.18 19.27 9.70996 18.58 9.70996C17.87 9.70996 17.27 10.22 17.14 10.9C17.11 11.04 17.23 11.18 17.38 11.18H19.73C19.91 11.18 20.06 11 20.01 10.82Z" fill="white"/>
<path d="M12.72 10.93C12.72 10.41 13.14 9.98999 13.66 9.98999C14.18 9.98999 14.6 10.41 14.59 10.93C14.59 11.02 14.58 11.1 14.56 11.18H12.75C12.73 11.1 12.72 11.02 12.72 10.93Z" fill="#7D4533"/>
<path d="M19.31 10.93C19.31 10.41 18.89 9.98999 18.37 9.98999C17.85 9.98999 17.42 10.41 17.44 10.93C17.44 11.02 17.45 11.1 17.47 11.18H19.28C19.3 11.1 19.31 11.02 19.31 10.93Z" fill="#7D4533"/>
<path d="M13.66 10.3899C13.96 10.3899 14.2 10.6299 14.2 10.9299C14.2 11.0199 14.17 11.0999 14.13 11.1799H13.18C13.14 11.0999 13.12 11.0199 13.12 10.9299C13.12 10.6299 13.36 10.3899 13.66 10.3899Z" fill="black"/>
<path d="M18.37 10.3899C18.07 10.3899 17.83 10.6299 17.83 10.9299C17.83 11.0199 17.85 11.0999 17.9 11.1799H18.85C18.89 11.0999 18.91 11.0199 18.91 10.9299C18.91 10.6299 18.67 10.3899 18.37 10.3899Z" fill="black"/>
<path d="M13.51 10.5599C13.51 10.6538 13.4339 10.7299 13.34 10.7299C13.2462 10.7299 13.17 10.6538 13.17 10.5599C13.17 10.466 13.2462 10.3899 13.34 10.3899C13.4339 10.3899 13.51 10.466 13.51 10.5599Z" fill="white"/>
<path d="M18.22 10.5599C18.22 10.6538 18.1439 10.7299 18.05 10.7299C17.9561 10.7299 17.88 10.6538 17.88 10.5599C17.88 10.466 17.9561 10.3899 18.05 10.3899C18.1439 10.3899 18.22 10.466 18.22 10.5599Z" fill="white"/>
<path d="M16.01 14.1C15.46 14.1 14.95 13.97 14.51 13.74C14.36 13.66 14.21 13.83 14.3 13.97C14.66 14.53 15.29 14.9 16.01 14.9C16.73 14.9 17.36 14.53 17.72 13.97C17.81 13.83 17.65 13.66 17.51 13.74C17.07 13.97 16.56 14.1 16.01 14.1Z" fill="#990838"/>
<path d="M15.62 10.69L15.09 12.42C14.98 12.77 15.25 13.13 15.62 13.13H16.41C16.78 13.13 17.05 12.77 16.94 12.42L16.4 10.69C16.28 10.31 15.74 10.31 15.62 10.69Z" fill="#75443E"/>
<path d="M19.6 9.02003C19.64 9.05003 19.69 9.06003 19.74 9.06003C19.84 9.06003 19.93 9.01003 19.98 8.91003C20.06 8.77003 20.02 8.60003 19.88 8.52003C19.85 8.50003 18.93 7.99003 17.88 8.18003C17.72 8.21003 17.62 8.36003 17.65 8.51003C17.68 8.67003 17.83 8.77003 17.98 8.74003C18.7575 8.60281 19.4598 8.95096 19.5815 9.01129C19.5928 9.01691 19.6 9.02003 19.6 9.02003Z" fill="#372128"/>
<path d="M12.03 8.92003C12.09 9.01003 12.18 9.06003 12.28 9.06003C12.33 9.06003 12.38 9.05003 12.41 9.03003C12.42 9.02003 13.18 8.60003 14.03 8.75003C14.18 8.78003 14.33 8.67003 14.36 8.52003C14.39 8.37003 14.28 8.22003 14.13 8.19003C13.1233 7.99829 12.2454 8.46831 12.1393 8.52508C12.1348 8.52753 12.13 8.53003 12.13 8.53003C12 8.61003 11.95 8.78003 12.03 8.92003Z" fill="#372128"/>
<path d="M20.77 9.1001H17.3C17 9.1001 16.72 9.2401 16.53 9.4701C16.41 9.6201 16.23 9.7101 16.02 9.7101C15.81 9.7101 15.63 9.6201 15.51 9.4701C15.32 9.2401 15.04 9.1001 14.74 9.1001H11.25C11.06 9.1001 10.91 9.2501 10.91 9.4401V9.6601C10.91 9.7701 10.96 9.8601 11.04 9.9201C11.08 9.9501 11.11 10.0001 11.11 10.0501V11.1501C11.11 12.2001 11.96 13.0601 13.02 13.0601H13.73C14.78 13.0601 15.64 12.2101 15.64 11.1501V10.5401C15.65 10.3401 15.81 10.1901 16.01 10.1901C16.21 10.1901 16.37 10.3501 16.38 10.5501V10.5701C16.38 10.5701 16.38 10.5701 16.38 10.5801V11.1501C16.38 12.2101 17.24 13.0601 18.29 13.0601H19C20.06 13.0601 20.91 12.2001 20.91 11.1501V10.0401C20.91 9.9901 20.93 9.9401 20.97 9.9101C21.05 9.8501 21.1 9.7501 21.1 9.6501V9.4301C21.11 9.2501 20.96 9.1001 20.77 9.1001ZM15.31 11.0501C15.31 11.9601 14.57 12.7001 13.66 12.7001H13.11C12.2 12.7001 11.46 11.9601 11.46 11.0501V10.3301C11.46 9.8401 11.85 9.4501 12.34 9.4501H14.42C14.91 9.4501 15.3 9.8401 15.3 10.3301V11.0501H15.31ZM20.59 11.0501C20.59 11.9601 19.85 12.7001 18.94 12.7001H18.39C17.48 12.7001 16.74 11.9601 16.74 11.0501V10.3301C16.74 9.8401 17.13 9.4501 17.62 9.4501H19.71C20.2 9.4501 20.59 9.8401 20.59 10.3301V11.0501Z" fill="#433B6B"/>
<path d="M9.32996 24.1101C9.32996 23.5601 9.77996 23.1101 10.33 23.1101C10.88 23.1101 11.33 23.5601 11.33 24.1101V26.4001H9.32996V24.1101Z" fill="#8B5C56"/>
<path d="M22.6799 24.1101C22.6799 23.5601 22.2299 23.1101 21.6799 23.1101C21.1299 23.1101 20.6799 23.5601 20.6799 24.1101V26.4001H22.6799V24.1101Z" fill="#8B5C56"/>
<path d="M11.3099 22.8801V30.0001H21.6499V21.8101C21.6499 21.3601 21.2899 21.0001 20.8399 21.0001H13.1999C12.1499 20.9901 11.3099 21.8401 11.3099 22.8801Z" fill="#F92F60"/>
<path d="M10.3099 30.0001V21.8801C10.3099 20.8401 11.1499 19.9901 12.1999 20.0001H20.8399C21.2899 20.0001 21.6499 20.3601 21.6499 20.8101V21.4346H12V30.0001H10.3099Z" fill="#433B6B"/>
<path d="M21.64 20.8601H12.1C11.62 20.8601 11.23 21.2501 11.23 21.7301C11.23 22.2101 11.62 22.6001 12.1 22.6001H21.64V20.8601Z" fill="#E6E6E6"/>
<path d="M14.2599 25.49C14.2499 25.08 13.8999 24.76 13.4899 24.76V24.75H10.1899C9.70995 24.75 9.31995 25.14 9.31995 25.62V29.13C9.31995 29.61 9.70995 30 10.1899 30H13.4899C13.8999 30 14.2499 29.68 14.2599 29.27C14.2599 29 14.1299 28.76 13.9199 28.62C14.1299 28.49 14.2599 28.26 14.2599 28C14.2599 27.74 14.1199 27.51 13.9199 27.38C14.1299 27.25 14.2599 27.02 14.2599 26.76C14.2599 26.5 14.1199 26.27 13.9199 26.14C14.1299 26 14.2699 25.76 14.2599 25.49Z" fill="#966661"/>
<path d="M17.73 25.49C17.74 25.08 18.09 24.76 18.5 24.76V24.75H21.8C22.28 24.75 22.67 25.14 22.67 25.62V29.13C22.67 29.61 22.28 30 21.8 30H18.5C18.09 30 17.74 29.68 17.73 29.27C17.73 29 17.86 28.76 18.07 28.62C17.86 28.49 17.73 28.26 17.73 28C17.73 27.74 17.87 27.51 18.07 27.38C17.86 27.25 17.73 27.02 17.73 26.76C17.73 26.5 17.87 26.27 18.07 26.14C17.86 26 17.72 25.76 17.73 25.49Z" fill="#966661"/>
</svg>

<svg xmlns="http://www.w3.org/2000/svg" width="32" height="32" fill="none"><path fill="#FFCE7C" d="m3 7 7.5 12 17 5 2.306.806a.61.61 0 0 0 .174-.446V4.62c0-.34-.27-.62-.62-.62H2.62c-.17 0-.325.07-.438.183L3 7Z"/><path fill="#E19747" d="M2.62 24.99h26.75c.17 0 .325-.07.436-.184L29 24 3 5l-.817-.817A.618.618 0 0 0 2 4.62v19.75c0 .34.28.62.62.62Z"/><path fill="#44911B" d="M3 23.99V5h25.99v18.99H3Z"/><path fill="#2D242D" d="M23.59 12.48c.22-.46.34-.97.34-1.51 0-.71-.21-1.37-.58-1.92a3.34 3.34 0 0 1-.56-1.87v-.01c0-1.92-1.56-3.48-3.48-3.48-.19 0-.37-.09-.48-.24A3.429 3.429 0 0 0 16.02 2c-1.17 0-2.2.57-2.83 1.45a.58.58 0 0 1-.48.25c-1.92 0-3.48 1.56-3.48 3.48v.01c0 .67-.19 1.31-.56 1.87-.36.54-.58 1.2-.58 1.91 0 .54.12 1.05.34 1.51.07.15.07.33 0 .48-.22.45-.34.95-.34 1.49 0 1.87 1.52 3.39 3.39 3.39h9.05c1.87 0 3.39-1.52 3.39-3.39 0-.53-.12-1.04-.34-1.49a.616.616 0 0 1 .01-.48Z"/><path fill="#8C5543" d="M9 18.015a10.957 10.957 0 0 1 7-2.515c2.66 0 5.099.945 7 2.518L24.5 24 23 30H9l-1.5-6L9 18.015Z"/><path fill="#6D4534" d="M11.29 18.94 12.65 16H14v14l-2.8-7.87a.952.952 0 0 1 .23-1l1.36-1.33c.16-.16.05-.45-.19-.45h-1.05c-.21 0-.35-.22-.26-.41ZM20.76 18.94 19.4 16H18v14l2.85-7.87c.13-.35.03-.74-.23-1l-1.36-1.33a.265.265 0 0 1 .19-.45h1.05c.21 0 .35-.22.26-.41ZM9 18c-2.43 2.03-4.01 5.09-4 8.5V30h4V18ZM23 18v12h4v-1l-.01-2.51c0-3.41-1.54-6.47-3.99-8.49Z"/><path fill="#E6E6E6" d="M18.05 16.82h-4.11V30h4.11V16.82Z"/><path fill="#8B5C56" d="M16 18.67c-1.14 0-2.06-.92-2.06-2.06v-2.56c0-1.14.92-2.06 2.06-2.06 1.14 0 2.06.92 2.06 2.06v2.56A2.07 2.07 0 0 1 16 18.67ZM13.001 10.69a1.63 1.63 0 1 1-3.26 0 1.63 1.63 0 0 1 3.26 0ZM22.199 10.69a1.63 1.63 0 1 1-3.26 0 1.63 1.63 0 0 1 3.26 0Z"/><path fill="#E6E6E6" d="M18.07 16.83h-4.12v13.19h4.12V16.83Z"/><path fill="#8B5C56" d="M16 18.68c-1.107 0-2-.92-2-2.06v-2.56c0-1.14.893-2.06 2-2.06s2 .92 2 2.06v2.56c0 1.14-.893 2.06-2 2.06Z"/><path fill="#966661" d="M20.14 7.66h-3.35c-1.33 0-2.57-.66-3.32-1.75a.272.272 0 0 0-.48.06l-.08.2c-.234.575-.898 1.064-1.37 1.32-.24.13-.82.51-.84 1.51l.14 3.34c.12 2.96 2.4 4.94 5.17 4.94s5.05-1.98 5.17-4.94l.13-3.18c0-1.4-.98-1.5-1.17-1.5Z"/><path fill="#000" d="M13.26 9.6c.59 0 1.08.41 1.38.87-.243.073-.48.141-.714.208-.468.134-.926.265-1.406.432l-.5-.45c-.2-.19-.19-.53.04-.69.33-.24.78-.37 1.2-.37ZM18.77 9.6c-.59 0-1.08.41-1.38.87.26.08.515.153.768.226.445.128.886.255 1.352.414l.5-.45c.2-.19.19-.53-.04-.69-.33-.24-.78-.37-1.2-.37Z"/><path fill="#fff" d="M12.01 10.82c.16-.64.74-1.11 1.43-1.11.72 0 1.31.51 1.45 1.19.03.14-.09.28-.24.28H12.3c-.19 0-.33-.18-.29-.36ZM20.01 10.82a1.47 1.47 0 0 0-2.87.08c-.03.14.09.28.24.28h2.35c.18 0 .33-.18.28-.36Z"/><path fill="#7D4533" d="M12.72 10.93c0-.52.42-.94.94-.94s.94.42.93.94c0 .09-.01.17-.03.25h-1.81c-.02-.08-.03-.16-.03-.25ZM19.31 10.93c0-.52-.42-.94-.94-.94s-.95.42-.93.94c0 .09.01.17.03.25h1.81c.02-.08.03-.16.03-.25Z"/><path fill="#000" d="M13.66 10.39c.3 0 .54.24.54.54 0 .09-.03.17-.07.25h-.95a.542.542 0 0 1 .48-.79ZM18.37 10.39c-.3 0-.54.24-.54.54 0 .09.02.17.07.25h.95a.542.542 0 0 0-.48-.79Z"/><path fill="#fff" d="M13.51 10.56a.17.17 0 1 1-.34 0 .17.17 0 0 1 .34 0ZM18.22 10.56a.17.17 0 1 1-.34 0 .17.17 0 0 1 .34 0Z"/><path fill="#990838" d="M16.01 14.1c-.55 0-1.06-.13-1.5-.36-.15-.08-.3.09-.21.23.36.56.99.93 1.71.93s1.35-.37 1.71-.93c.09-.14-.07-.31-.21-.23-.44.23-.95.36-1.5.36Z"/><path fill="#75443E" d="m15.62 10.69-.53 1.73c-.11.35.16.71.53.71h.79c.37 0 .64-.36.53-.71l-.54-1.73a.41.41 0 0 0-.78 0Z"/><path fill="#372128" d="M19.6 9.02c.04.03.09.04.14.04.1 0 .19-.05.24-.15a.28.28 0 0 0-.1-.39c-.03-.02-.95-.53-2-.34-.16.03-.26.18-.23.33.03.16.18.26.33.23.777-.137 1.48.211 1.601.271l.019.009ZM12.03 8.92a.297.297 0 0 0 .38.11c.01-.01.77-.43 1.62-.28.15.03.3-.08.33-.23.03-.15-.08-.3-.23-.33-1.007-.192-1.885.278-1.99.335l-.01.005c-.13.08-.18.25-.1.39Z"/><path fill="#433B6B" d="M20.77 9.1H17.3c-.3 0-.58.14-.77.37a.64.64 0 0 1-.51.24.64.64 0 0 1-.51-.24c-.19-.23-.47-.37-.77-.37h-3.49c-.19 0-.34.15-.34.34v.22c0 .11.05.2.13.26.04.03.07.08.07.13v1.1c0 1.05.85 1.91 1.91 1.91h.71c1.05 0 1.91-.85 1.91-1.91v-.61c.01-.2.17-.35.37-.35.2 0 .36.16.37.36v.6c0 1.06.86 1.91 1.91 1.91H19c1.06 0 1.91-.86 1.91-1.91v-1.11c0-.05.02-.1.06-.13.08-.06.13-.16.13-.26v-.22a.32.32 0 0 0-.33-.33Zm-5.46 1.95c0 .91-.74 1.65-1.65 1.65h-.55c-.91 0-1.65-.74-1.65-1.65v-.72c0-.49.39-.88.88-.88h2.08c.49 0 .88.39.88.88v.72h.01Zm5.28 0c0 .91-.74 1.65-1.65 1.65h-.55c-.91 0-1.65-.74-1.65-1.65v-.72c0-.49.39-.88.88-.88h2.09c.49 0 .88.39.88.88v.72Z"/><path fill="#8B5C56" d="M9.33 24.11c0-.55.45-1 1-1s1 .45 1 1v2.29h-2v-2.29ZM22.68 24.11c0-.55-.45-1-1-1s-1 .45-1 1v2.29h2v-2.29Z"/><path fill="#F92F60" d="M11.31 22.88V30h10.34v-8.19c0-.45-.36-.81-.81-.81H13.2c-1.05-.01-1.89.84-1.89 1.88Z"/><path fill="#433B6B" d="M10.31 30v-8.12c0-1.04.84-1.89 1.89-1.88h8.64c.45 0 .81.36.81.81v.625H12V30h-1.69Z"/><path fill="#E6E6E6" d="M21.64 20.86H12.1a.87.87 0 0 0 0 1.74h9.54v-1.74Z"/><path fill="#966661" d="M14.26 25.49a.763.763 0 0 0-.77-.73v-.01h-3.3a.87.87 0 0 0-.87.87v3.51c0 .48.39.87.87.87h3.3c.41 0 .76-.32.77-.73 0-.27-.13-.51-.34-.65.21-.13.34-.36.34-.62s-.14-.49-.34-.62c.21-.13.34-.36.34-.62s-.14-.49-.34-.62a.75.75 0 0 0 .34-.65ZM17.73 25.49c.01-.41.36-.73.77-.73v-.01h3.3c.48 0 .87.39.87.87v3.51c0 .48-.39.87-.87.87h-3.3c-.41 0-.76-.32-.77-.73 0-.27.13-.51.34-.65a.722.722 0 0 1-.34-.62c0-.26.14-.49.34-.62a.722.722 0 0 1-.34-.62c0-.26.14-.49.34-.62a.75.75 0 0 1-.34-.65Z"/></svg>
